picto/stands-s-en-large-framed.svg

<svg class="color-immutable" width="30" height="30" viewBox="0 0 30 30" fill="none" xmlns="http://www.w3.org/2000/svg"><path d="M30 0H0V30H30V0Z" fill="#2D327D"/><path d="M25.5 3C26.325 3 27 3.675 27 4.5V25.5C27 26.325 26.325 27 25.5 27H4.5C3.675 27 3 26.325 3 25.5V4.5C3 3.675 3.675 3 4.5 3H25.5ZM25.5 2.625H4.5C3.46613 2.625 2.625 3.46613 2.625 4.5V25.5C2.625 26.5339 3.46613 27.375 4.5 27.375H25.5C26.5339 27.375 27.375 26.5339 27.375 25.5V4.5C27.375 3.46613 26.5339 2.625 25.5 2.625Z" fill="white"/><path d="M20.1818 14.5039H17.3763C17.321 13.8457 17.0764 13.3427 16.6427 12.995C16.209 12.6475 15.6013 12.4736 14.8201 12.4736C14.1248 12.4736 13.5849 12.6106 13.2005 12.8843C12.816 13.1581 12.6237 13.5412 12.6237 14.0332C12.6237 14.4762 12.8083 14.7962 13.1775 14.993C13.5342 15.19 14.4386 15.4669 15.8906 15.8236C17.4225 16.2052 18.4838 16.5896 19.0744 16.9772C20.1634 17.691 20.7078 18.6845 20.7078 19.958C20.7078 21.3547 20.1601 22.456 19.0652 23.2618C18.0992 23.9695 16.7918 24.3231 15.1431 24.3231C13.3096 24.3231 11.8854 23.9048 10.8703 23.068C9.85519 22.2314 9.32914 21.0409 9.29224 19.4966H12.2269C12.2699 20.2473 12.4637 20.8041 12.8083 21.1669C13.3496 21.7453 14.1649 22.0344 15.2538 22.0344C15.9921 22.0344 16.5765 21.8899 17.0073 21.6007C17.4932 21.2684 17.7363 20.8162 17.7363 20.2441C17.7363 19.6719 17.3949 19.2536 16.712 18.989C16.3366 18.8413 15.4507 18.5737 14.0542 18.1861C13.1805 17.9462 12.4977 17.7187 12.0055 17.5033C11.5132 17.288 11.1196 17.0481 10.8243 16.7834C10.1352 16.1683 9.79069 15.3193 9.79069 14.2363C9.79069 12.9383 10.329 11.9108 11.4057 11.1541C12.3223 10.5081 13.5128 10.1851 14.9771 10.1851C16.2628 10.1851 17.3396 10.4404 18.207 10.951C19.4557 11.6831 20.1139 12.8674 20.1818 14.5039Z" fill="white"/><path d="M7.88573 6.666H7.41818C7.40895 6.55628 7.36815 6.47243 7.29593 6.41453C7.2237 6.35663 7.12238 6.3276 6.99218 6.3276C6.8763 6.3276 6.7863 6.3504 6.72225 6.39608C6.6582 6.44175 6.6261 6.5055 6.6261 6.58755C6.6261 6.66135 6.65685 6.71468 6.71835 6.74753C6.77783 6.78038 6.92858 6.8265 7.17053 6.88598C7.42583 6.94958 7.60275 7.01363 7.70115 7.0782C7.88265 7.19715 7.9734 7.36275 7.9734 7.575C7.9734 7.8078 7.88213 7.99133 7.69965 8.12565C7.5387 8.24355 7.32075 8.3025 7.04595 8.3025C6.7404 8.3025 6.50303 8.23275 6.33383 8.09333C6.16463 7.9539 6.07695 7.75545 6.0708 7.49805H6.55988C6.56708 7.62315 6.59933 7.71593 6.65678 7.77645C6.747 7.87283 6.8829 7.92105 7.0644 7.92105C7.18748 7.92105 7.28483 7.89698 7.3566 7.84875C7.4376 7.7934 7.4781 7.71803 7.4781 7.62263C7.4781 7.52723 7.42118 7.45755 7.3074 7.41345C7.24485 7.38885 7.09718 7.34423 6.86445 7.27965C6.71888 7.23968 6.60503 7.20173 6.52298 7.1658C6.44093 7.12988 6.3753 7.0899 6.3261 7.0458C6.21128 6.94328 6.15383 6.80175 6.15383 6.6213C6.15383 6.40493 6.24353 6.2337 6.423 6.10755C6.57578 5.99985 6.77423 5.94608 7.01828 5.94608C7.23255 5.94608 7.41203 5.9886 7.55663 6.07373C7.76468 6.19583 7.8744 6.39323 7.88573 6.666Z" fill="white"/><path d="M9.13932 6.56602V6.88132H8.80557V7.6704C8.80557 7.76475 8.81427 7.82475 8.83174 7.85032C8.85739 7.88722 8.91477 7.90567 9.00402 7.90567C9.03889 7.90567 9.08397 7.90312 9.13939 7.89795V8.2548C9.03889 8.26605 8.94664 8.27175 8.86257 8.27175C8.73544 8.27175 8.63854 8.25742 8.57187 8.2287C8.46829 8.18257 8.40372 8.0985 8.37807 7.97647C8.36682 7.9242 8.36112 7.81597 8.36112 7.65195V6.88132H8.08887V6.56602H8.36112V6.17227H8.80564V6.56602H9.13932Z" fill="white"/><path d="M10.9173 8.24865H10.4621C10.4426 8.18303 10.4328 8.12715 10.4328 8.08103C10.2934 8.22353 10.1134 8.29485 9.89295 8.29485C9.72068 8.29485 9.58635 8.25488 9.48998 8.17485C9.3792 8.0826 9.32385 7.9539 9.32385 7.78883C9.32385 7.5786 9.41873 7.43303 9.6084 7.35203C9.68528 7.31918 9.8268 7.28895 10.0329 7.26128C10.2103 7.23773 10.3208 7.21485 10.3643 7.1928C10.4079 7.17075 10.4297 7.12643 10.4297 7.05975C10.4297 6.91313 10.3323 6.83978 10.1375 6.83978C10.034 6.83978 9.95835 6.85823 9.91065 6.89513C9.86295 6.93203 9.83145 6.99615 9.81608 7.08735H9.39465C9.408 6.90075 9.4782 6.75998 9.6054 6.66518C9.7326 6.57038 9.9135 6.5229 10.1483 6.5229C10.4078 6.5229 10.5995 6.5757 10.7236 6.6813C10.781 6.7305 10.8192 6.7833 10.8382 6.8397C10.8572 6.8961 10.8666 6.98528 10.8666 7.1073C10.8666 7.13295 10.865 7.24575 10.862 7.4457C10.8599 7.64768 10.8589 7.76355 10.8589 7.79333C10.8589 7.91535 10.8625 8.00483 10.8697 8.06175C10.8769 8.11868 10.8927 8.181 10.9173 8.24865ZM10.4267 7.43813C10.3692 7.47405 10.2647 7.50218 10.1129 7.52273C10.0062 7.53915 9.92933 7.56015 9.88215 7.5858C9.81548 7.62173 9.78218 7.6827 9.78218 7.7688C9.78218 7.83855 9.80423 7.89285 9.84833 7.93185C9.89243 7.97085 9.95393 7.99028 10.0329 7.99028C10.1642 7.99028 10.2703 7.94415 10.3513 7.85183C10.38 7.82003 10.3997 7.78695 10.4105 7.7526C10.4213 7.71825 10.4267 7.67288 10.4267 7.61648V7.43813Z" fill="white"/><path d="M11.6309 6.57368V6.80903C11.6832 6.73726 11.7319 6.68446 11.777 6.65063C11.8878 6.56453 12.0211 6.52141 12.1769 6.52141C12.3143 6.52141 12.4307 6.55628 12.526 6.62603C12.6019 6.68138 12.655 6.75136 12.6853 6.83596C12.7156 6.92056 12.7306 7.03973 12.7306 7.19356V8.24866H12.2861V7.28738C12.2861 7.17968 12.2769 7.10078 12.2584 7.05053C12.241 7.00643 12.2113 6.97156 12.1693 6.94591C12.121 6.91823 12.0662 6.90436 12.0047 6.90436C11.9371 6.90436 11.8755 6.92078 11.8201 6.95356C11.7648 6.98633 11.7238 7.03096 11.6971 7.08736C11.6674 7.15096 11.6524 7.24988 11.6524 7.38421V8.24858H11.2064V6.57368H11.6309Z" fill="white"/><path d="M14.6595 6V8.24865H14.2334V8.02868C14.135 8.20605 13.9714 8.29478 13.7427 8.29478C13.5151 8.29478 13.3341 8.21123 13.1998 8.04405C13.0686 7.881 13.0029 7.6662 13.0029 7.39958C13.0029 7.14833 13.0608 6.94485 13.1767 6.78892C13.31 6.60847 13.4905 6.51825 13.7181 6.51825C13.9407 6.51825 14.1063 6.6039 14.2149 6.77512V6H14.6595ZM13.8335 6.8844C13.7187 6.8844 13.6269 6.92745 13.5582 7.01363C13.4874 7.10385 13.452 7.23097 13.452 7.39507C13.452 7.55505 13.4869 7.68217 13.5567 7.77652C13.6233 7.86675 13.7181 7.9119 13.8412 7.9119C13.9643 7.9119 14.0596 7.86728 14.1273 7.7781C14.1949 7.68893 14.2288 7.5633 14.2288 7.4013C14.2288 7.2321 14.1929 7.10287 14.1211 7.0137C14.0504 6.92745 13.9545 6.8844 13.8335 6.8844Z" fill="white"/></svg>

<svg class="color-immutable" width="30" height="30" viewBox="0 0 30 30" fill="none" xmlns="http://www.w3.org/2000/svg"><g clip-path="url(#a)"><path d="M30 0H0v30h30V0Z" fill="#2D327D"/><path d="M25.5 3c.825 0 1.5.675 1.5 1.5v21c0 .825-.675 1.5-1.5 1.5h-21c-.825 0-1.5-.675-1.5-1.5v-21C3 3.675 3.675 3 4.5 3h21Zm0-.375h-21A1.877 1.877 0 0 0 2.625 4.5v21c0 1.034.841 1.875 1.875 1.875h21a1.877 1.877 0 0 0 1.875-1.875v-21A1.877 1.877 0 0 0 25.5 2.625Z" fill="#fff"/><path d="M20.182 14.504h-2.806c-.055-.658-.3-1.161-.733-1.509-.434-.347-1.042-.521-1.823-.521-.695 0-1.235.137-1.62.41-.384.274-.576.657-.576 1.15 0 .442.184.762.553.959.357.197 1.262.474 2.714.83 1.531.382 2.593.767 3.183 1.154 1.09.714 1.634 1.707 1.634 2.981 0 1.397-.548 2.498-1.643 3.304-.966.707-2.273 1.061-3.922 1.061-1.833 0-3.258-.418-4.273-1.255-1.015-.837-1.54-2.027-1.578-3.571h2.935c.043.75.237 1.307.581 1.67.542.578 1.357.867 2.446.867.738 0 1.322-.144 1.753-.433.486-.333.73-.785.73-1.357s-.342-.99-1.025-1.255c-.375-.148-1.261-.415-2.658-.803-.873-.24-1.556-.467-2.049-.683-.492-.215-.885-.455-1.18-.72-.69-.615-1.034-1.464-1.034-2.547 0-1.298.538-2.325 1.615-3.082.916-.646 2.107-.969 3.571-.969 1.286 0 2.363.255 3.23.766 1.249.732 1.907 1.916 1.975 3.553ZM7.886 6.666h-.468a.343.343 0 0 0-.122-.251.474.474 0 0 0-.304-.087.46.46 0 0 0-.27.068.222.222 0 0 0-.096.192c0 .073.03.127.092.16.06.032.21.079.453.138.255.064.432.128.53.192a.563.563 0 0 1 .272.497.647.647 0 0 1-.273.55c-.161.119-.38.178-.654.178-.306 0-.543-.07-.712-.21-.17-.14-.257-.338-.263-.595h.489c.007.125.04.218.097.278.09.097.226.145.407.145.123 0 .22-.024.293-.072a.26.26 0 0 0 .121-.226c0-.096-.057-.165-.17-.21a6.006 6.006 0 0 0-.444-.133 2.616 2.616 0 0 1-.341-.114.736.736 0 0 1-.197-.12.54.54 0 0 1-.172-.425c0-.216.09-.387.269-.513.153-.108.351-.162.595-.162.215 0 .394.043.539.128.208.122.317.32.329.592ZM9.14 6.566v.315h-.334v.79c0 .094.008.154.026.18.025.036.083.055.172.055.035 0 .08-.003.135-.008v.357c-.1.011-.192.017-.276.017a.764.764 0 0 1-.291-.043.332.332 0 0 1-.194-.253 1.931 1.931 0 0 1-.017-.324v-.77H8.09v-.316h.272v-.394h.445v.394h.333ZM10.917 8.249h-.455a.606.606 0 0 1-.03-.168.722.722 0 0 1-.539.214c-.172 0-.307-.04-.403-.12a.475.475 0 0 1-.166-.386c0-.21.095-.356.284-.437.077-.033.219-.063.425-.09.177-.024.288-.047.331-.07.044-.021.066-.066.066-.132 0-.147-.098-.22-.293-.22-.103 0-.179.018-.226.055-.048.037-.08.101-.095.192h-.421a.545.545 0 0 1 .21-.422c.128-.095.309-.142.543-.142.26 0 .452.053.576.158.057.05.095.102.114.159a.911.911 0 0 1 .029.267l-.005.339-.003.347c0 .122.004.212.01.269.008.057.024.119.048.187Zm-.49-.81a.866.866 0 0 1-.314.084.757.757 0 0 0-.23.063c-.068.036-.1.097-.1.183 0 .07.021.124.065.163a.27.27 0 0 0 .185.058.403.403 0 0 0 .318-.138.27.27 0 0 0 .06-.1.466.466 0 0 0 .016-.136v-.178ZM11.63 6.574v.235a.632.632 0 0 1 .546-.288c.138 0 .255.035.35.105a.439.439 0 0 1 .16.21c.03.085.045.204.045.358v1.055h-.445v-.962a.74.74 0 0 0-.028-.236.21.21 0 0 0-.089-.105.356.356 0 0 0-.35.008.304.304 0 0 0-.122.133.74.74 0 0 0-.045.297v.865h-.446V6.574h.425ZM14.66 6v2.249h-.427v-.22c-.098.177-.262.266-.49.266a.66.66 0 0 1-.543-.25c-.131-.164-.197-.379-.197-.645 0-.252.058-.455.174-.611a.638.638 0 0 1 .541-.27c.223 0 .388.085.497.256V6h.444Zm-.826.884a.334.334 0 0 0-.276.13c-.07.09-.106.217-.106.381 0 .16.035.287.105.382.066.09.161.135.284.135a.338.338 0 0 0 .286-.134c.068-.09.102-.215.102-.377 0-.169-.036-.298-.108-.387a.352.352 0 0 0-.287-.13Z" fill="#fff"/></g><defs><clipPath id="a"><path fill="#fff" d="M0 0h30v30H0z"/></clipPath></defs></svg>
